; generated by PrusaSlicer 2.2.0-rc4+linux-x64 on 2020-05-07 at 18:03:43 UTC

; 

; external perimeters extrusion width = 0.45mm
; perimeters extrusion width = 0.45mm
; infill extrusion width = 0.45mm
; solid infill extrusion width = 0.45mm
; top infill extrusion width = 0.40mm
; first layer extrusion width = 0.42mm

M73 P0 R62
M73 Q0 S62
M201 X1000 Y1000 Z1000 E5000 ; sets maximum accelerations, mm/sec^2
M203 X200 Y200 Z12 E120 ; sets maximum feedrates, mm/sec
M204 P1250 R1250 T1250 ; sets acceleration (P, T) and retract acceleration (R), mm/sec^2
M205 X8.00 Y8.00 Z0.40 E4.50 ; sets the jerk limits, mm/sec
M205 S0 T0 ; sets the minimum extruding and travel feed rate, mm/sec
M107
M862.3 P "MK3S" ; printer model check
M862.1 P0.4 ; nozzle diameter check
M115 U3.8.1 ; tell printer latest fw version
G90 ; use absolute coordinates
M83 ; extruder relative mode
M104 S215 ; set extruder temp
M140 S60 ; set bed temp
M190 S60 ; wait for bed temp
M109 S215 ; wait for extruder temp
G28 W ; home all without mesh bed level
G80 ; mesh bed leveling
G1 Y-3.0 F1000.0 ; go outside print area
G92 E0.0
G1 X60.0 E9.0 F1000.0 ; intro line
M73 Q0 S62
M73 P0 R62
G1 X100.0 E12.5 F1000.0 ; intro line
G92 E0.0
M221 S95
G21 ; set units to millimeters
G90 ; use absolute coordinates
M83 ; use relative distances for extrusion
M900 K30 ; Filament gcode
;BEFORE_LAYER_CHANGE
G92 E0.0
;0.2


G1 E-0.80000 F2100.00000
G1 Z0.600 F10800.000
;AFTER_LAYER_CHANGE
;0.2
G1 X108.235 Y74.908
G1 Z0.200
G1 E0.80000 F2100.00000
M204 S1000
G1 F1200.000
G1 X108.715 Y74.500 E0.01977
G1 X109.283 Y74.234 E0.01965
G1 X109.904 Y74.125 E0.01977
G1 X140.004 Y74.123 E0.94377
G1 X140.892 Y74.297 E0.02837
G1 X141.653 Y74.792 E0.02849
G1 X142.172 Y75.534 E0.02837
G1 X142.376 Y76.415 E0.02837
G1 X142.377 Y133.511 E1.79021
G1 X142.311 Y134.055 E0.01716
G1 X142.122 Y134.572 E0.01728
G1 X141.763 Y135.095 E0.01989
G1 X141.275 Y135.506 E0.02000
G1 X140.699 Y135.772 E0.01989
G1 X140.073 Y135.876 E0.01989
G1 X109.981 Y135.877 E0.94353
G1 X109.442 Y135.811 E0.01704
G1 X108.928 Y135.622 E0.01716
G1 X108.399 Y135.257 E0.02012
G1 X107.986 Y134.762 E0.02024
G1 X107.721 Y134.177 E0.02012
G1 X107.623 Y133.543 E0.02012
G1 X107.623 Y76.489 E1.78890
G1 X107.689 Y75.945 E0.01716
G1 X107.878 Y75.428 E0.01728
G1 X108.201 Y74.957 E0.01789
G1 F8640.000
G1 X108.715 Y74.500 E-0.15898
G1 X109.283 Y74.234 E-0.14470
G1 X109.904 Y74.125 E-0.14557
G1 X111.250 Y74.125 E-0.31076
G1 E-0.04000 F2100.00000
G1 Z0.800 F10800.000
G1 X110.787 Y107.287
G1 Z0.200
G1 E0.80000 F2100.00000
G1 F1200.000
G1 X139.213 Y107.287 E0.89127
G1 X139.213 Y132.713 E0.79721
G1 X110.787 Y132.713 E0.89127
G1 X110.787 Y107.347 E0.79533
G1 X110.410 Y106.910 F10800.000
G1 F1200.000
G1 X139.590 Y106.910 E0.91492
G1 X139.590 Y133.090 E0.82086
G1 X110.410 Y133.090 E0.91492
G1 X110.410 Y106.970 E0.81897
G1 X110.798 Y107.007 F10800.000
G1 F8640.000
G1 X113.701 Y106.963 E-0.76000
G1 E-0.04000 F2100.00000
G1 Z0.800 F10800.000
G1 X139.100 Y108.165
G1 Z0.200
G1 E0.80000 F2100.00000
G1 F1200.000
G1 X138.505 Y107.570 E0.02645
G1 X137.970 Y107.570 E0.01681
G1 X138.930 Y108.530 E0.04268
G1 X138.930 Y109.064 E0.01681
G1 X137.436 Y107.570 E0.06646
G1 X136.901 Y107.570 E0.01681
G1 X138.930 Y109.599 E0.09023
G1 X138.930 Y110.134 E0.01681
G1 X136.366 Y107.570 E0.11401
G1 X135.831 Y107.570 E0.01681
G1 X138.930 Y110.669 E0.13779
G1 X138.930 Y111.203 E0.01681
G1 X135.297 Y107.570 E0.16157
G1 X134.762 Y107.570 E0.01681
G1 X138.930 Y111.738 E0.18534
G1 X138.930 Y112.273 E0.01681
G1 X134.227 Y107.570 E0.20912
G1 X133.692 Y107.570 E0.01681
G1 X138.930 Y112.808 E0.23290
G1 X138.930 Y113.342 E0.01681
G1 X133.158 Y107.570 E0.25667
G1 X132.623 Y107.570 E0.01681
G1 X138.930 Y113.877 E0.28045
G1 X138.930 Y114.412 E0.01681
G1 X132.088 Y107.570 E0.30423
G1 X131.553 Y107.570 E0.01681
G1 X138.930 Y114.947 E0.32801
G1 X138.930 Y115.481 E0.01681
G1 X131.019 Y107.570 E0.35178
G1 X130.484 Y107.570 E0.01681
G1 X138.930 Y116.016 E0.37556
G1 X138.930 Y116.551 E0.01681
G1 X129.949 Y107.570 E0.39934
G1 X129.414 Y107.570 E0.01681
G1 X138.930 Y117.086 E0.42311
G1 X138.930 Y117.620 E0.01681
G1 X128.880 Y107.570 E0.44689
G1 X128.345 Y107.570 E0.01681
G1 X138.930 Y118.155 E0.47067
G1 X138.930 Y118.690 E0.01681
G1 X127.810 Y107.570 E0.49445
G1 X127.275 Y107.570 E0.01681
G1 X138.930 Y119.225 E0.51822
G1 X138.930 Y119.759 E0.01681
G1 X126.741 Y107.570 E0.54200
G1 X126.206 Y107.570 E0.01681
G1 X138.930 Y120.294 E0.56578
G1 X138.930 Y120.829 E0.01681
G1 X125.671 Y107.570 E0.58955
G1 X125.136 Y107.570 E0.01681
G1 X138.930 Y121.364 E0.61333
G1 X138.930 Y121.898 E0.01681
G1 X124.602 Y107.570 E0.63711
G1 X124.067 Y107.570 E0.01681
G1 X138.930 Y122.433 E0.66089
G1 X138.930 Y122.968 E0.01681
G1 X123.532 Y107.570 E0.68466
G1 X122.997 Y107.570 E0.01681
G1 X138.930 Y123.503 E0.70844
G1 X138.930 Y124.037 E0.01681
G1 X122.463 Y107.570 E0.73222
G1 X121.928 Y107.570 E0.01681
G1 X138.930 Y124.572 E0.75599
G1 X138.930 Y125.107 E0.01681
G1 X121.393 Y107.570 E0.77977
G1 X120.858 Y107.570 E0.01681
G1 X138.930 Y125.642 E0.80355
G1 X138.930 Y126.176 E0.01681
G1 X120.324 Y107.570 E0.82733
G1 X119.789 Y107.570 E0.01681
G1 X138.930 Y126.711 E0.85110
G1 X138.930 Y127.246 E0.01681
G1 X119.254 Y107.570 E0.87488
G1 X118.719 Y107.570 E0.01681
G1 X138.930 Y127.781 E0.89866
G1 X138.930 Y128.315 E0.01681
G1 X118.185 Y107.570 E0.92243
G1 X117.650 Y107.570 E0.01681
G1 X138.930 Y128.850 E0.94621
G1 X138.930 Y129.385 E0.01681
G1 X117.115 Y107.570 E0.96999
G1 X116.580 Y107.570 E0.01681
G1 X138.930 Y129.920 E0.99377
M73 Q1 S61
M73 P1 R61
G1 X138.930 Y130.454 E0.01681
G1 X116.046 Y107.570 E1.01754
G1 X115.511 Y107.570 E0.01681
G1 X138.930 Y130.989 E1.04132
G1 X138.930 Y131.524 E0.01681
G1 X114.976 Y107.570 E1.06510
G1 X114.441 Y107.570 E0.01681
G1 X138.930 Y132.059 E1.08888
G1 X138.930 Y132.430 E0.01168
G1 X138.767 Y132.430 E0.00513
G1 X113.907 Y107.570 E1.10540
G1 X113.372 Y107.570 E0.01681
G1 X138.232 Y132.430 E1.10540
G1 X137.697 Y132.430 E0.01681
G1 X112.837 Y107.570 E1.10540
G1 X112.302 Y107.570 E0.01681
G1 X137.163 Y132.430 E1.10540
G1 X136.628 Y132.430 E0.01681
G1 X111.768 Y107.570 E1.10540
G1 X111.233 Y107.570 E0.01681
G1 X136.093 Y132.430 E1.10540
G1 X135.558 Y132.430 E0.01681
G1 X111.070 Y107.942 E1.08887
G1 X111.070 Y108.476 E0.01681
G1 X135.024 Y132.430 E1.06509
G1 X134.489 Y132.430 E0.01681
G1 X111.070 Y109.011 E1.04132
G1 X111.070 Y109.546 E0.01681
G1 X133.954 Y132.430 E1.01754
G1 X133.419 Y132.430 E0.01681
G1 X111.070 Y110.081 E0.99376
G1 X111.070 Y110.615 E0.01681
G1 X132.885 Y132.430 E0.96998
G1 X132.350 Y132.430 E0.01681
G1 X111.070 Y111.150 E0.94621
G1 X111.070 Y111.685 E0.01681
G1 X131.815 Y132.430 E0.92243
G1 X131.280 Y132.430 E0.01681
G1 X111.070 Y112.220 E0.89865
G1 X111.070 Y112.754 E0.01681
G1 X130.746 Y132.430 E0.87488
G1 X130.211 Y132.430 E0.01681
G1 X111.070 Y113.289 E0.85110
G1 X111.070 Y113.824 E0.01681
G1 X129.676 Y132.430 E0.82732
G1 X129.141 Y132.430 E0.01681
G1 X111.070 Y114.359 E0.80354
G1 X111.070 Y114.893 E0.01681
G1 X128.607 Y132.430 E0.77977
G1 X128.072 Y132.430 E0.01681
G1 X111.070 Y115.428 E0.75599
G1 X111.070 Y115.963 E0.01681
G1 X127.537 Y132.430 E0.73221
G1 X127.003 Y132.430 E0.01681
G1 X111.070 Y116.497 E0.70843
G1 X111.070 Y117.032 E0.01681
G1 X126.468 Y132.430 E0.68466
G1 X125.933 Y132.430 E0.01681
G1 X111.070 Y117.567 E0.66088
G1 X111.070 Y118.102 E0.01681
G1 X125.398 Y132.430 E0.63710
G1 X124.864 Y132.430 E0.01681
G1 X111.070 Y118.636 E0.61333
G1 X111.070 Y119.171 E0.01681
G1 X124.329 Y132.430 E0.58955
G1 X123.794 Y132.430 E0.01681
G1 X111.070 Y119.706 E0.56577
G1 X111.070 Y120.241 E0.01681
G1 X123.259 Y132.430 E0.54199
G1 X122.725 Y132.430 E0.01681
G1 X111.070 Y120.775 E0.51822
G1 X111.070 Y121.310 E0.01681
G1 X122.190 Y132.430 E0.49444
G1 X121.655 Y132.430 E0.01681
G1 X111.070 Y121.845 E0.47066
G1 X111.070 Y122.380 E0.01681
G1 X121.120 Y132.430 E0.44689
G1 X120.586 Y132.430 E0.01681
G1 X111.070 Y122.914 E0.42311
G1 X111.070 Y123.449 E0.01681
G1 X120.051 Y132.430 E0.39933
G1 X119.516 Y132.430 E0.01681
G1 X111.070 Y123.984 E0.37555
G1 X111.070 Y124.519 E0.01681
G1 X118.981 Y132.430 E0.35178
G1 X118.447 Y132.430 E0.01681
G1 X111.070 Y125.053 E0.32800
G1 X111.070 Y125.588 E0.01681
G1 X117.912 Y132.430 E0.30422
G1 X117.377 Y132.430 E0.01681
G1 X111.070 Y126.123 E0.28045
G1 X111.070 Y126.658 E0.01681
G1 X116.842 Y132.430 E0.25667
G1 X116.308 Y132.430 E0.01681
G1 X111.070 Y127.192 E0.23289
G1 X111.070 Y127.727 E0.01681
G1 X115.773 Y132.430 E0.20911
G1 X115.238 Y132.430 E0.01681
G1 X111.070 Y128.262 E0.18534
G1 X111.070 Y128.797 E0.01681
G1 X114.703 Y132.430 E0.16156
G1 X114.169 Y132.430 E0.01681
G1 X111.070 Y129.331 E0.13778
G1 X111.070 Y129.866 E0.01681
G1 X113.634 Y132.430 E0.11401
G1 X113.099 Y132.430 E0.01681
G1 X111.070 Y130.401 E0.09023
G1 X111.070 Y130.936 E0.01681
G1 X112.564 Y132.430 E0.06645
G1 X112.030 Y132.430 E0.01681
G1 X111.070 Y131.470 E0.04267
G1 X111.070 Y132.005 E0.01681
G1 X111.665 Y132.600 E0.02644
G1 F8640.000
G1 X111.070 Y132.005 E-0.19419
G1 X111.070 Y131.470 E-0.12347
G1 X112.030 Y132.430 E-0.31340
M73 Q3 S60
M73 P3 R60
G1 X112.564 Y132.430 E-0.12347
G1 X112.548 Y132.413 E-0.00546
G1 E-0.04000 F2100.00000
G1 Z0.800 F10800.000
G1 X110.787 Y102.713
G1 Z0.200
G1 E0.80000 F2100.00000
G1 F1200.000
G1 X110.787 Y77.287 E0.79721
G1 X139.213 Y77.287 E0.89127
G1 X139.213 Y102.713 E0.79721
G1 X110.847 Y102.713 E0.88939
G1 X110.410 Y103.090 F10800.000
G1 F1200.000
G1 X110.410 Y76.910 E0.82086
G1 X139.590 Y76.910 E0.91492
G1 X139.590 Y103.090 E0.82086
G1 X110.470 Y103.090 E0.91304
G1 X110.520 Y102.706 F10800.000
G1 F8640.000
G1 X110.462 Y99.799 E-0.76000
G1 E-0.04000 F2100.00000
G1 Z0.800 F10800.000
G1 X139.100 Y78.165
G1 Z0.200
G1 E0.80000 F2100.00000
G1 F1200.000
G1 X138.505 Y77.570 E0.02645
G1 X137.970 Y77.570 E0.01681
G1 X138.930 Y78.530 E0.04268
G1 X138.930 Y79.064 E0.01681
G1 X137.436 Y77.570 E0.06646
G1 X136.901 Y77.570 E0.01681
G1 X138.930 Y79.599 E0.09023
G1 X138.930 Y80.134 E0.01681
G1 X136.366 Y77.570 E0.11401
G1 X135.831 Y77.570 E0.01681
G1 X138.930 Y80.669 E0.13779
G1 X138.930 Y81.203 E0.01681
G1 X135.297 Y77.570 E0.16157
G1 X134.762 Y77.570 E0.01681
G1 X138.930 Y81.738 E0.18534
G1 X138.930 Y82.273 E0.01681
G1 X134.227 Y77.570 E0.20912
G1 X133.692 Y77.570 E0.01681
G1 X138.930 Y82.808 E0.23290
G1 X138.930 Y83.342 E0.01681
G1 X133.158 Y77.570 E0.25667
G1 X132.623 Y77.570 E0.01681
G1 X138.930 Y83.877 E0.28045
G1 X138.930 Y84.412 E0.01681
G1 X132.088 Y77.570 E0.30423
G1 X131.553 Y77.570 E0.01681
G1 X138.930 Y84.947 E0.32801
G1 X138.930 Y85.481 E0.01681
G1 X131.019 Y77.570 E0.35178
G1 X130.484 Y77.570 E0.01681
G1 X138.930 Y86.016 E0.37556
G1 X138.930 Y86.551 E0.01681
G1 X129.949 Y77.570 E0.39934
G1 X129.414 Y77.570 E0.01681
G1 X138.930 Y87.086 E0.42311
G1 X138.930 Y87.620 E0.01681
G1 X128.880 Y77.570 E0.44689
G1 X128.345 Y77.570 E0.01681
G1 X138.930 Y88.155 E0.47067
G1 X138.930 Y88.690 E0.01681
G1 X127.810 Y77.570 E0.49445
G1 X127.275 Y77.570 E0.01681
G1 X138.930 Y89.225 E0.51822
G1 X138.930 Y89.759 E0.01681
G1 X126.741 Y77.570 E0.54200
G1 X126.206 Y77.570 E0.01681
G1 X138.930 Y90.294 E0.56578
G1 X138.930 Y90.829 E0.01681
G1 X125.671 Y77.570 E0.58955
G1 X125.136 Y77.570 E0.01681
G1 X138.930 Y91.364 E0.61333
G1 X138.930 Y91.898 E0.01681
G1 X124.602 Y77.570 E0.63711
G1 X124.067 Y77.570 E0.01681
G1 X138.930 Y92.433 E0.66089
G1 X138.930 Y92.968 E0.01681
G1 X123.532 Y77.570 E0.68466
G1 X122.997 Y77.570 E0.01681
G1 X138.930 Y93.503 E0.70844
G1 X138.930 Y94.037 E0.01681
G1 X122.463 Y77.570 E0.73222
G1 X121.928 Y77.570 E0.01681
G1 X138.930 Y94.572 E0.75599
G1 X138.930 Y95.107 E0.01681
G1 X121.393 Y77.570 E0.77977
G1 X120.858 Y77.570 E0.01681
G1 X138.930 Y95.642 E0.80355
G1 X138.930 Y96.176 E0.01681
G1 X120.324 Y77.570 E0.82733
G1 X119.789 Y77.570 E0.01681
G1 X138.930 Y96.711 E0.85110
G1 X138.930 Y97.246 E0.01681
G1 X119.254 Y77.570 E0.87488
G1 X118.719 Y77.570 E0.01681
G1 X138.930 Y97.781 E0.89866
G1 X138.930 Y98.315 E0.01681
G1 X118.185 Y77.570 E0.92243
G1 X117.650 Y77.570 E0.01681
G1 X138.930 Y98.850 E0.94621
G1 X138.930 Y99.385 E0.01681
G1 X117.115 Y77.570 E0.96999
G1 X116.580 Y77.570 E0.01681
G1 X138.930 Y99.920 E0.99377
G1 X138.930 Y100.454 E0.01681
G1 X116.046 Y77.570 E1.01754
G1 X115.511 Y77.570 E0.01681
G1 X138.930 Y100.989 E1.04132
G1 X138.930 Y101.524 E0.01681
G1 X114.976 Y77.570 E1.06510
G1 X114.441 Y77.570 E0.01681
G1 X138.930 Y102.059 E1.08888
G1 X138.930 Y102.430 E0.01168
G1 X138.767 Y102.430 E0.00513
G1 X113.907 Y77.570 E1.10540
G1 X113.372 Y77.570 E0.01681
G1 X138.232 Y102.430 E1.10540
G1 X137.697 Y102.430 E0.01681
G1 X112.837 Y77.570 E1.10540
G1 X112.302 Y77.570 E0.01681
G1 X137.163 Y102.430 E1.10540
M73 Q4 S59
M73 P4 R59
G1 X136.628 Y102.430 E0.01681
G1 X111.768 Y77.570 E1.10540
G1 X111.233 Y77.570 E0.01681
G1 X136.093 Y102.430 E1.10540
G1 X135.558 Y102.430 E0.01681
G1 X111.070 Y77.942 E1.08887
G1 X111.070 Y78.476 E0.01681
G1 X135.024 Y102.430 E1.06509
G1 X134.489 Y102.430 E0.01681
G1 X111.070 Y79.011 E1.04132
G1 X111.070 Y79.546 E0.01681
G1 X133.954 Y102.430 E1.01754
G1 X133.419 Y102.430 E0.01681
G1 X111.070 Y80.081 E0.99376
G1 X111.070 Y80.615 E0.01681
G1 X132.885 Y102.430 E0.96998
G1 X132.350 Y102.430 E0.01681
G1 X111.070 Y81.150 E0.94621
G1 X111.070 Y81.685 E0.01681
G1 X131.815 Y102.430 E0.92243
G1 X131.280 Y102.430 E0.01681
G1 X111.070 Y82.220 E0.89865
G1 X111.070 Y82.754 E0.01681
G1 X130.746 Y102.430 E0.87488
G1 X130.211 Y102.430 E0.01681
G1 X111.070 Y83.289 E0.85110
G1 X111.070 Y83.824 E0.01681
G1 X129.676 Y102.430 E0.82732
G1 X129.141 Y102.430 E0.01681
G1 X111.070 Y84.359 E0.80354
G1 X111.070 Y84.893 E0.01681
G1 X128.607 Y102.430 E0.77977
G1 X128.072 Y102.430 E0.01681
G1 X111.070 Y85.428 E0.75599
G1 X111.070 Y85.963 E0.01681
G1 X127.537 Y102.430 E0.73221
G1 X127.003 Y102.430 E0.01681
G1 X111.070 Y86.497 E0.70843
G1 X111.070 Y87.032 E0.01681
G1 X126.468 Y102.430 E0.68466
G1 X125.933 Y102.430 E0.01681
G1 X111.070 Y87.567 E0.66088
G1 X111.070 Y88.102 E0.01681
G1 X125.398 Y102.430 E0.63710
G1 X124.864 Y102.430 E0.01681
G1 X111.070 Y88.636 E0.61333
G1 X111.070 Y89.171 E0.01681
G1 X124.329 Y102.430 E0.58955
G1 X123.794 Y102.430 E0.01681
G1 X111.070 Y89.706 E0.56577
G1 X111.070 Y90.241 E0.01681
G1 X123.259 Y102.430 E0.54199
G1 X122.725 Y102.430 E0.01681
G1 X111.070 Y90.775 E0.51822
G1 X111.070 Y91.310 E0.01681
G1 X122.190 Y102.430 E0.49444
G1 X121.655 Y102.430 E0.01681
G1 X111.070 Y91.845 E0.47066
G1 X111.070 Y92.380 E0.01681
G1 X121.120 Y102.430 E0.44689
G1 X120.586 Y102.430 E0.01681
G1 X111.070 Y92.914 E0.42311
G1 X111.070 Y93.449 E0.01681
G1 X120.051 Y102.430 E0.39933
G1 X119.516 Y102.430 E0.01681
G1 X111.070 Y93.984 E0.37555
G1 X111.070 Y94.519 E0.01681
G1 X118.981 Y102.430 E0.35178
G1 X118.447 Y102.430 E0.01681
G1 X111.070 Y95.053 E0.32800
G1 X111.070 Y95.588 E0.01681
G1 X117.912 Y102.430 E0.30422
G1 X117.377 Y102.430 E0.01681
G1 X111.070 Y96.123 E0.28045
G1 X111.070 Y96.658 E0.01681
G1 X116.842 Y102.430 E0.25667
G1 X116.308 Y102.430 E0.01681
G1 X111.070 Y97.192 E0.23289
G1 X111.070 Y97.727 E0.01681
G1 X115.773 Y102.430 E0.20911
G1 X115.238 Y102.430 E0.01681
G1 X111.070 Y98.262 E0.18534
G1 X111.070 Y98.797 E0.01681
G1 X114.703 Y102.430 E0.16156
G1 X114.169 Y102.430 E0.01681
G1 X111.070 Y99.331 E0.13778
G1 X111.070 Y99.866 E0.01681
G1 X113.634 Y102.430 E0.11401
G1 X113.099 Y102.430 E0.01681
G1 X111.070 Y100.401 E0.09023
G1 X111.070 Y100.936 E0.01681
G1 X112.564 Y102.430 E0.06645
G1 X112.030 Y102.430 E0.01681
G1 X111.070 Y101.470 E0.04267
G1 X111.070 Y102.005 E0.01681
G1 X111.665 Y102.600 E0.02644
M106 S255
;BEFORE_LAYER_CHANGE
G92 E0.0
;0.3


G1 F8640.000
G1 X111.070 Y102.005 E-0.19419
G1 X111.070 Y101.470 E-0.12347
G1 X112.030 Y102.430 E-0.31340
G1 X112.564 Y102.430 E-0.12347
G1 X112.548 Y102.413 E-0.00546
G1 E-0.04000 F2100.00000
G1 Z0.800 F10800.000
;AFTER_LAYER_CHANGE
;0.3
M104 S210 ; set temperature
G1 X140.892 Y74.297
G1 Z0.300
G1 E0.80000 F2100.00000
G1 F3000.000
G1 X141.653 Y74.792 E0.01505
G1 X142.172 Y75.534 E0.01499
G1 X142.376 Y76.415 E0.01499
G1 X142.377 Y133.511 E0.94605
G1 X142.311 Y134.055 E0.00907
